;FLAVOR:UltiGCode
;TIME:2033      
;MATERIAL:4693      
;MATERIAL2:0         

;Layer count: 43
;LAYER:0
M107
G0 F9000 X106.502 Y73.517 Z0.300
;TYPE:SKIRT
G1 F1200 X107.887 Y71.704 E0.54756
G1 X109.700 Y70.319 E1.09511
G1 X111.787 Y69.462 E1.63658
G1 X113.520 Y69.234 E2.05608
G1 X137.516 Y69.234 E7.81512
G1 X139.243 Y69.462 E8.23320
G1 X141.338 Y70.319 E8.77644
G1 X143.151 Y71.711 E9.32502
G1 X144.531 Y73.517 E9.87052
G1 X145.383 Y75.590 E10.40842
G1 X145.617 Y77.323 E10.82811
G1 X145.617 Y91.347 E14.19387
G1 X145.383 Y93.073 E14.61190
G1 X144.531 Y95.155 E15.15180
G1 X143.144 Y96.961 E15.69832
G1 X141.338 Y98.348 E16.24483
G1 X139.243 Y99.205 E16.78808
G1 X137.516 Y99.433 E17.20615
G1 X113.520 Y99.433 E22.96519
G1 X111.787 Y99.205 E23.38470
G1 X109.700 Y98.348 E23.92616
G1 X107.894 Y96.968 E24.47166
G1 X106.502 Y95.155 E25.02023
G1 X105.645 Y93.060 E25.56348
G1 X105.417 Y91.333 E25.98155
G1 X105.417 Y77.337 E29.34059
G1 X105.645 Y75.604 E29.76010
G1 X106.502 Y73.517 E30.30156
G0 F9000 X107.202 Y73.919
G1 F1200 X108.458 Y72.275 E30.79809
G1 X110.102 Y71.019 E31.29463
G1 X111.994 Y70.241 E31.78560
G1 X113.573 Y70.034 E32.16780
G1 X137.463 Y70.034 E37.90140
G1 X139.036 Y70.241 E38.28218
G1 X140.936 Y71.019 E38.77492
G1 X142.580 Y72.281 E39.27233
G1 X143.831 Y73.919 E39.76699
G1 X144.604 Y75.799 E40.25484
G1 X144.817 Y77.377 E40.63700
G1 X144.817 Y91.293 E43.97684
G1 X144.604 Y92.865 E44.35756
G1 X143.831 Y94.753 E44.84719
G1 X142.574 Y96.391 E45.34272
G1 X140.936 Y97.648 E45.83826
G1 X139.036 Y98.426 E46.33101
G1 X137.463 Y98.633 E46.71178
G1 X113.573 Y98.633 E52.44538
G1 X111.994 Y98.426 E52.82758
G1 X110.102 Y97.648 E53.31856
G1 X108.464 Y96.397 E53.81321
G1 X107.202 Y94.753 E54.31062
G1 X106.424 Y92.853 E54.80337
G1 X106.217 Y91.280 E55.18414
G1 X106.217 Y77.390 E58.51774
G1 X106.424 Y75.811 E58.89995
G1 X107.202 Y73.919 E59.39092
G0 F9000 X107.901 Y74.320
G1 F1200 X109.029 Y72.846 E59.83638
G1 X110.503 Y71.718 E60.28184
G1 X112.202 Y71.021 E60.72258
G1 X113.625 Y70.834 E61.06704
G1 X137.411 Y70.834 E66.77568
G1 X138.828 Y71.021 E67.11870
G1 X140.534 Y71.718 E67.56100
G1 X142.009 Y72.851 E68.00738
G1 X143.132 Y74.320 E68.45116
G1 X143.825 Y76.008 E68.88909
G1 X144.017 Y77.430 E69.23347
G1 X144.017 Y91.239 E72.54763
G1 X143.825 Y92.656 E72.89081
G1 X143.132 Y94.351 E73.33030
G1 X142.003 Y95.820 E73.77496
G1 X140.534 Y96.949 E74.21961
G1 X138.828 Y97.646 E74.66190
G1 X137.411 Y97.833 E75.00493
G1 X113.625 Y97.833 E80.71357
G1 X112.202 Y97.646 E81.05803
G1 X110.503 Y96.949 E81.49877
G1 X109.034 Y95.826 E81.94255
G1 X107.901 Y94.351 E82.38893
G1 X107.204 Y92.645 E82.83122
G1 X107.017 Y91.228 E83.17425
G1 X107.017 Y77.442 E86.48289
G1 X107.204 Y76.019 E86.82735
G1 X107.901 Y74.320 E87.26809
G0 F9000 X108.601 Y74.722
G1 F1200 X109.599 Y73.416 E87.66257
G1 X110.905 Y72.418 E88.05705
G1 X112.409 Y71.800 E88.44729
G1 X113.677 Y71.634 E88.75421
G1 X137.358 Y71.634 E94.43765
G1 X138.621 Y71.800 E94.74337
G1 X140.131 Y72.418 E95.13495
G1 X141.437 Y73.421 E95.53016
G1 X142.432 Y74.722 E95.92325
G1 X143.046 Y76.217 E96.31113
G1 X143.217 Y77.484 E96.61797
G1 X143.217 Y91.185 E99.90621
G1 X143.046 Y92.448 E100.21210
G1 X142.432 Y93.948 E100.60109
G1 X141.432 Y95.249 E100.99491
G1 X140.131 Y96.249 E101.38873
G1 X138.621 Y96.867 E101.78030
G1 X137.358 Y97.033 E102.08603
G1 X113.677 Y97.033 E107.76947
G1 X112.409 Y96.867 E108.07639
G1 X110.905 Y96.249 E108.46663
G1 X109.604 Y95.254 E108.85972
G1 X108.601 Y93.948 E109.25493
G1 X107.983 Y92.438 E109.64651
G1 X107.817 Y91.175 E109.95224
G1 X107.817 Y77.494 E113.23568
G1 X107.983 Y76.226 E113.54259
G1 X108.601 Y74.722 E113.93284
G0 F9000 X109.301 Y75.124
G1 F1200 X110.170 Y73.987 E114.27629
G1 X111.307 Y73.118 E114.61975
G1 X112.617 Y72.580 E114.95963
G1 X113.729 Y72.434 E115.22880
G1 X137.306 Y72.434 E120.88728
G1 X138.414 Y72.580 E121.15550
G1 X139.729 Y73.118 E121.49649
G1 X140.866 Y73.991 E121.84053
G1 X141.732 Y75.124 E122.18278
G1 X142.267 Y76.426 E122.52061
G1 X142.417 Y77.538 E122.78991
G1 X142.417 Y91.131 E126.05223
G1 X142.267 Y92.239 E126.32057
G1 X141.732 Y93.546 E126.65952
G1 X140.862 Y94.679 E127.00235
G1 X139.729 Y95.549 E127.34519
G1 X138.414 Y96.087 E127.68618
G1 X137.306 Y96.233 E127.95440
G1 X113.729 Y96.233 E133.61288
G1 X112.617 Y96.087 E133.88205
G1 X111.307 Y95.549 E134.22193
G1 X110.174 Y94.683 E134.56419
G1 X109.301 Y93.546 E134.90823
G1 X108.763 Y92.231 E135.24922
G1 X108.617 Y91.123 E135.51744
G1 X108.617 Y77.546 E138.77592
G1 X108.763 Y76.434 E139.04509
G1 X109.301 Y75.124 E139.38497
G0 F9000 X110.001 Y75.526
G1 F1200 X110.741 Y74.558 E139.67740
G1 X111.709 Y73.818 E139.96983
G1 X112.824 Y73.360 E140.25912
G1 X113.782 Y73.234 E140.49102
G1 X137.253 Y73.234 E146.12406
G1 X138.207 Y73.360 E146.35501
G1 X139.327 Y73.818 E146.64542
G1 X140.295 Y74.561 E146.93828
G1 X141.032 Y75.526 E147.22970
G1 X141.488 Y76.635 E147.51748
G1 X141.617 Y77.592 E147.74924
G1 X141.617 Y91.077 E150.98564
G1 X141.488 Y92.031 E151.21668
G1 X141.032 Y93.144 E151.50535
G1 X140.291 Y94.108 E151.79717
G1 X139.327 Y94.849 E152.08898
G1 X138.207 Y95.307 E152.37939
G1 X137.253 Y95.433 E152.61033
G1 X113.782 Y95.433 E158.24337
G1 X112.824 Y95.307 E158.47527
G1 X111.709 Y94.849 E158.76457
G1 X110.744 Y94.112 E159.05599
G1 X110.001 Y93.144 E159.34885
G1 X109.543 Y92.024 E159.63926
G1 X109.417 Y91.070 E159.87021
G1 X109.417 Y77.599 E163.10325
G1 X109.543 Y76.641 E163.33515
G1 X110.001 Y75.526 E163.62445
G0 F9000 X110.701 Y75.928
G1 F1200 X111.312 Y75.129 E163.86585
G1 X112.111 Y74.518 E164.10725
G1 X113.032 Y74.139 E164.34627
G1 X113.834 Y74.034 E164.54040
G1 X130.817 Y74.034 E168.61632
G1 X130.817 Y78.034 E169.57632
G1 X131.217 Y78.034 E169.67232
G1 X131.217 Y74.034 E170.63232
G1 X137.201 Y74.034 E172.06848
G1 X138.000 Y74.139 E172.26189
G1 X138.925 Y74.518 E172.50180
G1 X139.723 Y75.131 E172.74330
G1 X140.332 Y75.928 E172.98403
G1 X140.709 Y76.844 E173.22176
G1 X140.817 Y77.646 E173.41598
G1 X140.817 Y91.023 E176.62646
G1 X140.709 Y91.822 E176.81996
G1 X140.332 Y92.742 E177.05858
G1 X139.721 Y93.538 E177.29941
G1 X138.925 Y94.149 E177.54025
G1 X138.000 Y94.528 E177.78016
G1 X137.201 Y94.633 E177.97357
G1 X113.834 Y94.633 E183.58165
G1 X113.032 Y94.528 E183.77577
G1 X112.111 Y94.149 E184.01479
G1 X111.314 Y93.540 E184.25552
G1 X110.701 Y92.742 E184.49703
G1 X110.322 Y91.817 E184.73694
G1 X110.217 Y91.018 E184.93035
G1 X110.217 Y77.651 E188.13843
G1 X110.322 Y76.849 E188.33255
G1 X110.701 Y75.928 E188.57157
G0 F9000 X111.400 Y76.329
G1 F1200 X111.882 Y75.699 E188.76195
G1 X112.512 Y75.217 E188.95233
G1 X113.239 Y74.919 E189.14090
G1 X113.886 Y74.834 E189.29751
G1 X130.017 Y74.834 E193.16895
G1 X130.017 Y78.834 E194.12895
G1 X132.017 Y78.834 E194.60895
G1 X132.017 Y74.834 E195.56895
G1 X137.148 Y74.834 E196.80039
G1 X137.793 Y74.919 E196.95653
G1 X138.523 Y75.217 E197.14576
G1 X139.152 Y75.701 E197.33624
G1 X139.633 Y76.329 E197.52609
G1 X139.930 Y77.053 E197.71391
G1 X140.017 Y77.699 E197.87034
G1 X140.017 Y90.969 E201.05514
G1 X139.930 Y91.613 E201.21111
G1 X139.633 Y92.340 E201.39959
G1 X139.150 Y92.967 E201.58954
G1 X138.523 Y93.450 E201.77949
G1 X137.793 Y93.748 E201.96873
G1 X137.148 Y93.833 E202.12486
G1 X113.886 Y93.833 E207.70774
G1 X113.239 Y93.748 E207.86436
G1 X112.512 Y93.450 E208.05293
G1 X111.884 Y92.969 E208.24278
G1 X111.400 Y92.340 E208.43326
G1 X111.102 Y91.610 E208.62249
G1 X111.017 Y90.965 E208.77863
G1 X111.017 Y77.703 E211.96151
G1 X111.102 Y77.056 E212.11813
G1 X111.400 Y76.329 E212.30669
G0 F9000 X112.100 Y76.731
G1 F1200 X112.453 Y76.270 E212.44605
G1 X112.914 Y75.917 E212.58540
G1 X113.447 Y75.699 E212.72360
G1 X113.939 Y75.634 E212.84271
G1 X129.217 Y75.634 E216.50943
G1 X129.217 Y79.634 E217.46943
G1 X132.817 Y79.634 E218.33343
G1 X132.817 Y75.634 E219.29343
G1 X137.096 Y75.634 E220.32039
G1 X137.586 Y75.699 E220.43902
G1 X138.120 Y75.917 E220.57745
G1 X138.581 Y76.271 E220.71694
G1 X138.933 Y76.731 E220.85596
G1 X139.151 Y77.262 E220.99372
G1 X139.217 Y77.753 E221.11262
G1 X139.217 Y90.915 E224.27150
G1 X139.151 Y91.405 E224.39016
G1 X138.933 Y91.937 E224.52815
G1 X138.580 Y92.397 E224.66731
G1 X138.120 Y92.750 E224.80647
G1 X137.586 Y92.968 E224.94490
G1 X137.096 Y93.033 E225.06353
G1 X113.939 Y93.033 E230.62121
G1 X113.447 Y92.968 E230.74031
G1 X112.914 Y92.750 E230.87852
G1 X112.454 Y92.398 E231.01753
G1 X112.100 Y91.937 E231.15703
G1 X111.882 Y91.403 E231.29546
G1 X111.817 Y90.913 E231.41409
G1 X111.817 Y77.756 E234.57177
G1 X111.882 Y77.264 E234.69087
G1 X112.100 Y76.731 E234.82908
G0 F9000 X112.800 Y77.133
G1 F1200 X113.024 Y76.841 E234.91740
G1 X113.316 Y76.617 E235.00573
G1 X113.654 Y76.478 E235.09344
G1 X113.991 Y76.434 E235.17501
G1 X128.417 Y76.434 E238.63725
G1 X128.417 Y79.805 E239.44629
G1 X128.442 Y79.991 E239.49133
G1 X128.499 Y80.132 E239.52783
G1 X128.594 Y80.255 E239.56513
G1 X128.719 Y80.350 E239.60281
G1 X128.864 Y80.410 E239.64047
G1 X129.041 Y80.434 E239.68334
G1 X132.992 Y80.434 E240.63158
G1 X133.171 Y80.410 E240.67493
G1 X133.315 Y80.351 E240.71227
G1 X133.439 Y80.256 E240.74976
G1 X133.534 Y80.132 E240.78725
G1 X133.593 Y79.988 E240.82460
G1 X133.617 Y79.809 E240.86795
G1 X133.617 Y76.434 E241.67795
G1 X137.043 Y76.434 E242.50019
G1 X137.379 Y76.478 E242.58151
G1 X137.718 Y76.617 E242.66945
G1 X138.010 Y76.841 E242.75777
G1 X138.233 Y77.133 E242.84595
G1 X138.372 Y77.471 E242.93366
G1 X138.417 Y77.807 E243.01502
G1 X138.417 Y90.861 E246.14798
G1 X138.372 Y91.196 E246.22911
G1 X138.233 Y91.535 E246.31704
G1 X138.009 Y91.826 E246.40518
G1 X137.718 Y92.050 E246.49331
G1 X137.379 Y92.189 E246.58124
G1 X137.043 Y92.233 E246.66257
G1 X113.991 Y92.233 E252.19505
G1 X113.654 Y92.189 E252.27662
G1 X113.316 Y92.050 E252.36433
G1 X113.024 Y91.827 E252.45251
G1 X112.800 Y91.535 E252.54084
G1 X112.661 Y91.196 E252.62877
G1 X112.617 Y90.860 E252.71010
G1 X112.617 Y77.808 E255.84258
G1 X112.661 Y77.471 E255.92414
G1 X112.800 Y77.133 E256.01186
G0 F9000 X113.417 Y77.863
;TYPE:WALL-OUTER
G1 F1200 X113.441 Y77.677 E256.05687
G1 X113.500 Y77.536 E256.09355
G1 X113.595 Y77.412 E256.13104
G1 X113.719 Y77.317 E256.16853
G1 X113.860 Y77.258 E256.20521
G1 X114.046 Y77.234 E256.25022
G1 X127.617 Y77.234 E259.50726
G1 X127.617 Y79.860 E260.13750
G1 X127.661 Y80.196 E260.21883
G1 X127.800 Y80.535 E260.30676
G1 X128.024 Y80.827 E260.39509
G1 X128.316 Y81.050 E260.48327
G1 X128.654 Y81.189 E260.57098
G1 X128.990 Y81.234 E260.65234
G1 X133.044 Y81.234 E261.62530
G1 X133.379 Y81.189 E261.70642
G1 X133.718 Y81.050 E261.79436
G1 X134.009 Y80.826 E261.88249
G1 X134.233 Y80.535 E261.97063
G1 X134.372 Y80.196 E262.05856
G1 X134.417 Y79.861 E262.13968
G1 X134.417 Y77.234 E262.77016
G1 X136.988 Y77.234 E263.38720
G1 X137.174 Y77.259 E263.43224
G1 X137.315 Y77.316 E263.46874
G1 X137.438 Y77.411 E263.50604
G1 X137.533 Y77.536 E263.54372
G1 X137.593 Y77.681 E263.58139
G1 X137.617 Y77.858 E263.62425
G1 X137.617 Y90.809 E266.73249
G1 X137.593 Y90.988 E266.77584
G1 X137.534 Y91.132 E266.81319
G1 X137.439 Y91.256 E266.85068
G1 X137.315 Y91.351 E266.88817
G1 X137.174 Y91.408 E266.92467
G1 X136.988 Y91.433 E266.96971
G1 X114.046 Y91.433 E272.47579
G1 X113.860 Y91.409 E272.52080
G1 X113.719 Y91.350 E272.55748
G1 X113.594 Y91.255 E272.59516
G1 X113.499 Y91.132 E272.63246
G1 X113.442 Y90.991 E272.66896
G1 X113.417 Y90.805 E272.71401
G1 X113.417 Y77.863 E275.82009
G0 F9000 X113.696 Y78.058
;TYPE:FILL
G1 F1200 X126.791 Y91.153 E280.26468
G0 F9000 X127.922 Y91.153
G1 F1200 X114.283 Y77.513 E284.89408
G0 F9000 X115.414 Y77.513
G1 F1200 X129.054 Y91.153 E289.52364
G0 F9000 X130.185 Y91.153
G1 F1200 X116.546 Y77.513 E294.15304
G0 F9000 X117.677 Y77.513
G1 F1200 X131.316 Y91.153 E298.78244
G0 F9000 X132.448 Y91.153
G1 F1200 X118.808 Y77.513 E303.41201
G0 F9000 X119.940 Y77.513
G1 F1200 X133.579 Y91.153 E308.04141
G0 F9000 X134.710 Y91.153
G1 F1200 X121.071 Y77.513 E312.67081
G0 F9000 X122.202 Y77.513
G1 F1200 X135.842 Y91.153 E317.30038
G0 F9000 X136.972 Y91.152
G1 F1200 X123.334 Y77.513 E321.92944
G0 F9000 X124.465 Y77.513
G1 F1200 X127.504 Y80.552 E322.96091
G0 F9000 X128.296 Y81.344
G1 F1200 X137.335 Y90.383 E326.02885
G0 F9000 X137.335 Y89.252
G1 F1200 X129.597 Y81.514 E328.65522
G0 F9000 X130.729 Y81.514
G1 F1200 X137.335 Y88.121 E330.89754
G0 F9000 X137.335 Y86.989
G1 F1200 X131.860 Y81.514 E332.75581
G0 F9000 X132.991 Y81.514
G1 F1200 X137.335 Y85.858 E334.23022
G0 F9000 X137.335 Y84.726
G1 F1200 X133.884 Y81.275 E335.40152
G0 F9000 X134.449 Y80.709
G1 F1200 X137.335 Y83.595 E336.38107
G0 F9000 X137.335 Y82.464
G1 F1200 X134.696 Y79.824 E337.27694
G0 F9000 X134.696 Y78.693
G1 F1200 X137.335 Y81.332 E338.17265
G0 F9000 X137.335 Y80.201
G1 F1200 X134.696 Y77.561 E339.06852
G0 F9000 X135.780 Y77.514
G1 F1200 X137.335 Y79.070 E339.59648
G0 F9000 X137.335 Y77.938
G1 F1200 X136.911 Y77.514 E339.74039
G0 F9000 X136.911 Y77.734
G0 X134.018 Y81.573
G0 X133.084 Y81.833
G0 X128.498 Y81.771
G0 X127.277 Y80.835
G0 X127.016 Y78.124
G0 X127.117 Y78.121
G0 X127.336 Y78.121
G1 F1200 X126.728 Y77.513 E339.94675
G0 F9000 X125.597 Y77.513
G1 F1200 X127.336 Y79.253 E340.53716
G0 F9000 X127.117 Y79.253
G0 X125.659 Y90.933
G0 X125.659 Y91.153
G1 F1200 X113.696 Y79.189 E344.59770
G0 F9000 X113.696 Y80.320
G1 F1200 X124.528 Y91.153 E348.27438
G0 F9000 X123.397 Y91.153
G1 F1200 X113.696 Y81.452 E351.56700
G0 F9000 X113.696 Y82.583
G1 F1200 X122.265 Y91.153 E354.47559
G0 F9000 X121.134 Y91.153
G1 F1200 X113.696 Y83.715 E357.00013
G0 F9000 X113.696 Y84.846
G1 F1200 X120.003 Y91.153 E359.14080
G0 F9000 X118.871 Y91.153
G1 F1200 X113.696 Y85.977 E360.89742
G0 F9000 X113.696 Y87.109
G1 F1200 X117.740 Y91.153 E362.27000
G0 F9000 X116.608 Y91.153
G1 F1200 X113.696 Y88.240 E363.25853
G0 F9000 X113.696 Y89.371
G1 F1200 X115.477 Y91.153 E363.86320
G0 F9000 X114.346 Y91.153
G1 F1200 X113.696 Y90.503 E364.08381
G0 F9000 X113.917 Y90.503
G0 X115.417 Y89.433
;LAYER:1
M106 S12
G0 X117.417 Y87.433 Z0.400
;TYPE:WALL-INNER
G1 F1800 X117.417 Y81.234 E364.57973
G1 X123.764 Y81.234 E365.08749
G1 X124.301 Y82.546 E365.20090
G1 X125.174 Y83.683 E365.31558
G1 X126.307 Y84.549 E365.42967
G1 X127.609 Y85.084 E365.54228
G1 X128.721 Y85.234 E365.63204
G1 X133.314 Y85.234 E365.99948
G1 X133.617 Y85.193 E366.02395
G1 X133.617 Y87.433 E366.20315
G1 X117.417 Y87.433 E367.49915
G0 F9000 X116.617 Y88.233
G1 F1800 X116.617 Y80.434 E368.12307
G1 X124.465 Y80.434 E368.75091
G1 X124.543 Y81.024 E368.79852
G1 X125.001 Y82.144 E368.89532
G1 X125.744 Y83.112 E368.99294
G1 X126.709 Y83.849 E369.09008
G1 X127.818 Y84.305 E369.18601
G1 X128.775 Y84.434 E369.26326
G1 X133.260 Y84.434 E369.62206
G1 X134.214 Y84.305 E369.69907
G1 X134.417 Y84.222 E369.71662
G1 X134.417 Y88.233 E370.03750
G1 X116.617 Y88.233 E371.46150
G0 F9000 X115.817 Y89.033
G1 F1800 X115.817 Y79.634 E372.21342
G1 X125.217 Y79.634 E372.96542
G1 X125.217 Y80.018 E372.99614
G1 X125.322 Y80.817 E373.06061
G1 X125.701 Y81.742 E373.14058
G1 X126.314 Y82.540 E373.22108
G1 X127.111 Y83.149 E373.30132
G1 X128.027 Y83.526 E373.38057
G1 X128.829 Y83.634 E373.44531
G1 X133.206 Y83.634 E373.79547
G1 X134.005 Y83.526 E373.85997
G1 X134.910 Y83.156 E373.93819
G1 X135.217 Y82.925 E373.96892
G1 X135.217 Y89.033 E374.45756
G1 X115.817 Y89.033 E376.00956
G0 F9000 X115.017 Y89.833
G1 F1800 X115.017 Y78.834 E376.88948
G1 X126.017 Y78.834 E377.76948
G1 X126.017 Y79.965 E377.85996
G1 X126.102 Y80.610 E377.91201
G1 X126.400 Y81.340 E377.97509
G1 X126.884 Y81.969 E378.03858
G1 X127.512 Y82.450 E378.10186
G1 X128.236 Y82.747 E378.16447
G1 X128.882 Y82.834 E378.21661
G1 X133.152 Y82.834 E378.55821
G1 X133.796 Y82.747 E378.61020
G1 X134.512 Y82.454 E378.67209
G1 X135.161 Y81.959 E378.73739
G1 X135.632 Y81.341 E378.79955
G1 X135.930 Y80.613 E378.86248
G1 X136.017 Y79.969 E378.91447
G1 X136.017 Y89.833 E379.70359
G1 X115.017 Y89.833 E381.38359
G0 F9000 X114.217 Y90.633
G1 F1800 X114.217 Y78.034 E382.39151
G1 X126.817 Y78.034 E383.39951
G1 X126.817 Y79.913 E383.54983
G1 X126.882 Y80.403 E383.58937
G1 X127.100 Y80.937 E383.63552
G1 X127.454 Y81.398 E383.68201
G1 X127.914 Y81.750 E383.72835
