;FLAVOR:UltiGCode
;TIME:2653      
;MATERIAL:2358      
;MATERIAL2:0         

;Layer count: 263
;LAYER:0
M107
G0 F9000 X98.30 Y94.84 Z0.30
;TYPE:SKIRT
G1 F1200 X102.32 Y93.02 E0.52977
G1 X122.95 Y93.02 E3.00585
G1 X127.45 Y93.02 E3.54525
G1 X130.09 Y94.03 E3.88443
G1 X132.66 Y95.80 E4.25878
G1 X134.48 Y99.82 E4.78854
G1 X134.48 Y125.17 E7.83114
G1 X132.68 Y129.17 E8.35739
G1 X130.05 Y131.00 E8.74124
G1 X127.39 Y131.98 E9.08112
G1 X102.62 Y131.98 E12.05436
G1 X99.96 Y131.00 E12.39413
G1 X97.33 Y129.18 E12.77867
G1 X95.52 Y125.18 E13.30489
G1 X95.52 Y100.06 E16.31917
G1 X96.53 Y97.42 E16.65828
G1 X98.30 Y94.84 E17.03393
G0 F9000 X98.56 Y95.16
G1 F1200 X102.41 Y93.42 E17.53990
G1 X122.95 Y93.42 E20.00566
G1 X127.37 Y93.42 E20.53606
G1 X129.90 Y94.39 E20.86080
G1 X132.34 Y96.06 E21.21605
G1 X134.08 Y99.91 E21.72201
G1 X134.08 Y125.09 E24.74397
G1 X132.36 Y128.91 E25.24665
G1 X129.86 Y130.64 E25.61112
G1 X127.32 Y131.58 E25.93619
G1 X102.69 Y131.58 E28.89239
G1 X100.14 Y130.65 E29.21747
G1 X97.64 Y128.91 E29.58254
G1 X95.92 Y125.09 E30.08518
G1 X95.92 Y100.14 E33.08026
G1 X96.89 Y97.61 E33.40482
G1 X98.56 Y95.16 E33.76136
G0 F9000 X98.83 Y95.47
G1 F1200 X102.49 Y93.82 E34.24360
G1 X122.95 Y93.82 E36.69892
G1 X127.30 Y93.82 E37.22044
G1 X129.71 Y94.75 E37.53067
G1 X132.02 Y96.33 E37.86685
G1 X133.68 Y99.99 E38.34897
G1 X133.68 Y125.00 E41.35029
G1 X132.04 Y128.64 E41.82939
G1 X129.68 Y130.28 E42.17445
G1 X127.25 Y131.18 E42.48490
G1 X102.76 Y131.18 E45.42394
G1 X100.33 Y130.29 E45.73433
G1 X97.96 Y128.65 E46.08000
G1 X96.32 Y125.01 E46.55895
G1 X96.32 Y100.21 E49.53483
G1 X97.24 Y97.80 E49.84488
G1 X98.83 Y95.47 E50.18235
G0 F9000 X99.10 Y95.79
G1 F1200 X102.58 Y94.22 E50.64074
G1 X122.95 Y94.22 E53.08574
G1 X127.22 Y94.22 E53.59838
G1 X129.52 Y95.10 E53.89395
G1 X131.71 Y96.60 E54.21122
G1 X133.28 Y100.08 E54.66961
G1 X133.28 Y124.92 E57.65029
G1 X131.72 Y128.38 E58.10559
G1 X129.49 Y129.93 E58.43125
G1 X127.18 Y130.78 E58.72701
G1 X102.83 Y130.78 E61.64901
G1 X100.52 Y129.93 E61.94482
G1 X98.28 Y128.38 E62.27091
G1 X96.72 Y124.92 E62.72640
G1 X96.72 Y100.28 E65.68308
G1 X97.60 Y97.98 E65.97861
G1 X99.10 Y95.79 E66.29691
G0 F9000 X99.36 Y96.11
G1 F1200 X102.66 Y94.62 E66.73151
G1 X122.95 Y94.62 E69.16619
G1 X127.15 Y94.62 E69.66995
G1 X129.34 Y95.46 E69.95101
G1 X131.39 Y96.86 E70.24911
G1 X132.88 Y100.16 E70.68370
G1 X132.88 Y124.83 E73.64374
G1 X131.40 Y128.11 E74.07551
G1 X129.31 Y129.57 E74.38176
G1 X127.11 Y130.38 E74.66279
G1 X102.90 Y130.38 E77.56763
G1 X100.70 Y129.57 E77.84875
G1 X98.60 Y128.12 E78.15544
G1 X97.12 Y124.84 E78.58724
G1 X97.12 Y100.36 E81.52472
G1 X97.96 Y98.17 E81.80575
G1 X99.36 Y96.11 E82.10488
G0 F9000 X99.63 Y96.43
G1 F1200 X102.75 Y95.02 E82.51562
G1 X122.95 Y95.02 E84.93998
G1 X127.08 Y95.02 E85.43474
G1 X129.15 Y95.82 E85.70137
G1 X131.07 Y97.13 E85.98046
G1 X132.48 Y100.25 E86.39121
G1 X132.48 Y124.75 E89.33061
G1 X131.08 Y127.85 E89.73880
G1 X129.12 Y129.21 E90.02558
G1 X127.04 Y129.98 E90.29192
G1 X102.97 Y129.98 E93.17972
G1 X100.89 Y129.22 E93.44615
G1 X98.92 Y127.85 E93.73335
G1 X97.52 Y124.75 E94.14158
G1 X97.52 Y100.43 E97.05986
G1 X98.31 Y98.36 E97.32638
G1 X99.63 Y96.43 E97.60644
G0 F9000 X99.90 Y96.75
G1 F1200 X102.84 Y95.42 E97.99345
G1 X122.95 Y95.42 E100.40749
G1 X127.00 Y95.42 E100.89337
G1 X128.96 Y96.17 E101.14537
G1 X130.75 Y97.40 E101.40542
G1 X132.08 Y100.34 E101.79243
G1 X132.08 Y124.66 E104.71119
G1 X130.76 Y127.58 E105.09571
G1 X128.93 Y128.85 E105.36308
G1 X126.97 Y129.58 E105.61483
G1 X103.04 Y129.58 E108.48547
G1 X101.07 Y128.86 E108.73721
G1 X99.24 Y127.58 E109.00501
G1 X97.92 Y124.66 E109.38955
G1 X97.92 Y100.50 E112.28863
G1 X98.67 Y98.54 E112.54064
G1 X99.90 Y96.75 E112.80156
G0 F9000 X100.16 Y97.07
G1 F1200 X102.92 Y95.82 E113.16489
G1 X122.95 Y95.82 E115.56849
G1 X126.93 Y95.82 E116.04549
G1 X128.78 Y96.53 E116.28294
G1 X130.43 Y97.66 E116.52388
G1 X131.68 Y100.42 E116.88710
G1 X131.68 Y124.57 E119.78522
G1 X130.44 Y127.32 E120.14616
G1 X128.75 Y128.50 E120.39422
G1 X126.89 Y129.18 E120.63113
G1 X103.11 Y129.18 E123.48473
G1 X101.26 Y128.50 E123.72177
G1 X99.56 Y127.32 E123.97010
G1 X98.32 Y124.58 E124.33107
G1 X98.32 Y100.58 E127.21107
G1 X99.03 Y98.73 E127.44841
G1 X100.16 Y97.07 E127.69023
G0 F9000 X100.43 Y97.39
G1 F1200 X103.01 Y96.22 E128.02971
G1 X122.95 Y96.22 E130.42299
G1 X126.85 Y96.22 E130.89111
G1 X128.59 Y96.89 E131.11405
G1 X130.11 Y97.93 E131.33592
G1 X131.28 Y100.51 E131.67541
G1 X131.28 Y124.49 E134.55277
G1 X130.12 Y127.05 E134.89017
G1 X128.56 Y128.14 E135.11866
G1 X126.82 Y128.78 E135.34100
G1 X103.19 Y128.78 E138.17744
G1 X101.44 Y128.14 E138.39979
G1 X99.88 Y127.05 E138.62871
G1 X98.72 Y124.49 E138.96610
G1 X98.72 Y100.65 E141.82678
G1 X99.38 Y98.92 E142.04962
G1 X100.43 Y97.39 E142.27236
G0 F9000 X100.70 Y97.70
G1 F1200 X103.09 Y96.62 E142.58799
G1 X122.95 Y96.62 E144.97107
G1 X126.78 Y96.62 E145.43019
G1 X128.40 Y97.24 E145.63858
G1 X129.80 Y98.20 E145.84145
G1 X130.88 Y100.59 E146.15709
G1 X130.88 Y124.40 E149.01381
G1 X129.81 Y126.79 E149.32764
G1 X128.37 Y127.78 E149.53672
G1 X126.75 Y128.38 E149.74432
G1 X103.25 Y128.38 E152.56384
G1 X101.63 Y127.78 E152.77139
G1 X100.20 Y126.79 E152.98084
G1 X99.12 Y124.41 E153.29465
G1 X99.12 Y100.73 E156.13613
G1 X99.74 Y99.10 E156.34457
G1 X100.70 Y97.70 E156.54814
G0 F9000 X100.97 Y98.02
G1 F1200 X103.18 Y97.02 E156.83998
G1 X122.95 Y97.02 E159.21274
G1 X126.70 Y97.02 E159.66286
G1 X128.21 Y97.60 E159.85674
G1 X129.48 Y98.47 E160.04054
G1 X130.48 Y100.68 E160.33238
G1 X130.48 Y124.32 E163.16858
G1 X129.49 Y126.52 E163.45862
G1 X128.19 Y127.42 E163.64839
G1 X126.68 Y127.98 E163.84130
G1 X103.33 Y127.98 E166.64366
G1 X101.82 Y127.42 E166.83663
G1 X100.52 Y126.52 E167.02657
G1 X99.52 Y124.32 E167.31669
G1 X99.52 Y100.80 E170.13897
G1 X100.10 Y99.29 E170.33291
G1 X100.97 Y98.02 E170.51731
G0 F9000 X101.23 Y98.34
G1 F1200 X103.27 Y97.42 E170.78530
G1 X122.95 Y97.42 E173.14774
G1 X126.63 Y97.42 E173.58898
G1 X128.03 Y97.96 E173.76836
G1 X129.16 Y98.73 E173.93308
G1 X130.08 Y100.77 E174.20108
G1 X130.08 Y124.23 E177.01664
G1 X129.17 Y126.25 E177.28309
G1 X128.00 Y127.06 E177.45346
G1 X126.61 Y127.58 E177.63164
G1 X103.40 Y127.58 E180.41696
G1 X102.00 Y127.07 E180.59524
G1 X100.83 Y126.26 E180.76570
G1 X99.92 Y124.23 E181.03225
G1 X99.92 Y100.87 E183.83545
G1 X100.45 Y99.48 E184.01476
G1 X101.23 Y98.34 E184.18009
G0 F9000 X101.50 Y98.66
G1 F1200 X103.35 Y97.82 E184.42435
G1 X122.95 Y97.82 E186.77635
G1 X126.56 Y97.82 E187.20871
G1 X127.84 Y98.31 E187.37353
G1 X128.84 Y99.00 E187.51925
G1 X129.68 Y100.85 E187.76340
G1 X129.68 Y124.14 E190.55832
G1 X128.85 Y125.99 E190.80125
G1 X127.81 Y126.71 E190.95205
G1 X126.54 Y127.18 E191.11565
G1 X103.47 Y127.18 E193.88381
G1 X102.19 Y126.71 E194.04739
G1 X101.15 Y125.99 E194.19845
G1 X100.32 Y124.15 E194.44131
G1 X100.32 Y100.95 E197.22531
G1 X100.81 Y99.66 E197.39012
G1 X101.50 Y98.66 E197.53637
G0 F9000 X101.77 Y98.98
G1 F1200 X103.44 Y98.22 E197.75694
G1 X126.48 Y98.22 E200.52210
G1 X127.65 Y98.67 E200.67231
G1 X128.52 Y99.27 E200.79889
G1 X129.28 Y100.94 E201.01946
G1 X129.28 Y124.06 E203.79362
G1 X128.53 Y125.72 E204.01286
G1 X127.63 Y126.35 E204.14435
G1 X126.47 Y126.78 E204.29315
G1 X103.54 Y126.78 E207.04427
G1 X102.37 Y126.35 E207.19312
G1 X101.47 Y125.73 E207.32477
G1 X100.72 Y124.06 E207.54417
G1 X100.72 Y101.02 E210.30885
G1 X101.17 Y99.85 E210.45914
G1 X101.77 Y98.98 E210.58616
G0 F9000 X102.03 Y99.30
G1 F1200 X103.53 Y98.62 E210.78289
G1 X126.41 Y98.62 E213.52885
G1 X127.46 Y99.03 E213.66450
G1 X128.20 Y99.53 E213.77207
G1 X128.88 Y101.03 E213.96880
G1 X128.88 Y123.97 E216.72232
G1 X128.21 Y125.46 E216.91799
G1 X127.44 Y125.99 E217.03007
G1 X126.39 Y126.38 E217.16424
G1 X103.61 Y126.38 E219.89820
G1 X102.56 Y125.99 E220.03236
G1 X101.79 Y125.46 E220.14461
G1 X101.12 Y123.97 E220.34032
G1 X101.12 Y101.09 E223.08592
G1 X101.52 Y100.04 E223.22166
G1 X102.03 Y99.30 E223.32957
G0 F9000 X102.30 Y99.61
G1 F1200 X103.61 Y99.02 E223.50246
G1 X126.33 Y99.02 E226.22910
G1 X127.28 Y99.38 E226.35035
G1 X127.89 Y99.80 E226.43885
G1 X128.48 Y101.11 E226.61174
G1 X128.48 Y123.89 E229.34462
G1 X127.89 Y125.19 E229.51671
G1 X127.26 Y125.63 E229.60932
G1 X126.32 Y125.98 E229.72880
G1 X103.68 Y125.98 E232.44572
G1 X102.75 Y125.64 E232.56519
G1 X102.11 Y125.19 E232.65796
G1 X101.52 Y123.89 E232.83009
G1 X101.52 Y101.17 E235.55649
G1 X101.88 Y100.22 E235.67773
G1 X102.30 Y99.61 E235.76656
G0 F9000 X102.57 Y99.93
G1 F1200 X103.70 Y99.42 E235.91565
G1 X126.26 Y99.42 E238.62309
G1 X127.09 Y99.74 E238.72980
G1 X127.57 Y100.07 E238.79919
G1 X128.08 Y101.20 E238.94828
G1 X128.08 Y123.80 E241.66052
G1 X127.57 Y124.93 E241.80909
G1 X127.07 Y125.28 E241.88229
G1 X126.25 Y125.58 E241.98703
G1 X103.75 Y125.58 E244.68679
G1 X102.93 Y125.28 E244.79157
G1 X102.43 Y124.93 E244.86494
G1 X101.92 Y123.80 E245.01338
G1 X101.92 Y101.24 E247.72058
G1 X102.24 Y100.41 E247.82731
G1 X102.57 Y99.93 E247.89698
G0 F9000 X102.83 Y100.25
G1 F1200 X103.78 Y99.82 E248.02233
G1 X126.19 Y99.82 E250.71045
G1 X126.90 Y100.10 E250.80253
G1 X127.25 Y100.33 E250.85296
G1 X127.68 Y101.28 E250.97820
G1 X127.68 Y123.72 E253.66992
G1 X127.25 Y124.66 E253.79469
G1 X126.88 Y124.92 E253.84848
G1 X126.18 Y125.18 E253.93854
G1 X103.82 Y125.18 E256.62126
G1 X103.12 Y124.92 E256.71146
G1 X102.75 Y124.66 E256.76525
G1 X102.32 Y123.72 E256.89012
G1 X102.32 Y101.32 E259.57812
G1 X102.59 Y100.60 E259.67034
G1 X102.83 Y100.25 E259.72093
G0 F9000 X103.10 Y100.57
G1 F1200 X103.87 Y100.22 E259.82244
G1 X126.11 Y100.22 E262.49124
G1 X126.72 Y100.45 E262.56888
G1 X126.93 Y100.60 E262.60031
G1 X127.28 Y101.37 E262.70181
G1 X127.28 Y123.63 E265.37277
G1 X126.93 Y124.40 E265.47396
G1 X126.70 Y124.56 E265.50828
G1 X126.11 Y124.78 E265.58376
G1 X103.89 Y124.78 E268.24932
G1 X103.30 Y124.56 E268.32483
G1 X103.07 Y124.40 E268.35922
G1 X102.72 Y123.63 E268.46051
G1 X102.72 Y101.39 E271.12931
G1 X102.95 Y100.78 E271.20691
G1 X103.10 Y100.57 E271.23843
G0 F9000 X103.37 Y100.89
G1 F1200 X103.96 Y100.62 E271.31614
G1 X126.04 Y100.62 E273.96574
G1 X126.53 Y100.81 E274.02887
G1 X126.61 Y100.87 E274.04112
G1 X126.88 Y101.46 E274.11884
G1 X126.88 Y123.54 E276.76916
G1 X126.61 Y124.13 E276.84677
G1 X126.51 Y124.20 E276.86178
G1 X126.04 Y124.38 E276.92241
G1 X103.97 Y124.38 E279.57093
G1 X103.49 Y124.20 E279.63175
G1 X103.39 Y124.13 E279.64666
G1 X103.12 Y123.54 E279.72438
G1 X103.12 Y101.46 E282.37398
G1 X103.31 Y100.97 E282.43707
G1 X103.37 Y100.89 E282.44942
G0 F9000 X103.65 Y101.20
;TYPE:WALL-OUTER
G1 F1200 X104.04 Y101.02 E282.50092
G1 X125.96 Y101.02 E285.13132
G1 X126.30 Y101.15 E285.17504
G1 X126.48 Y101.54 E285.22655
G1 X126.48 Y123.46 E287.85647
G1 X126.30 Y123.86 E287.90873
G1 X125.96 Y123.98 E287.95170
G1 X104.04 Y123.98 E290.58294
G1 X103.70 Y123.86 E290.62599
G1 X103.52 Y123.46 E290.67825
G1 X103.52 Y101.54 E293.30877
G1 X103.65 Y101.20 E293.35245
G0 F9000 X103.82 Y101.27
;TYPE:FILL
G1 F1200 X126.22 Y123.68 E297.15462
G0 F9000 X125.82 Y123.84
G1 F1200 X103.66 Y101.68 E300.91496
G0 F9000 X103.66 Y102.25
G1 F1200 X125.25 Y123.84 E304.57924
G0 F9000 X124.69 Y123.84
G1 F1200 X103.66 Y102.81 E308.14756
G0 F9000 X103.66 Y103.38
G1 F1200 X124.12 Y123.84 E311.61991
G0 F9000 X123.56 Y123.84
G1 F1200 X103.66 Y103.94 E314.99620
G0 F9000 X103.66 Y104.51
G1 F1200 X122.99 Y123.84 E318.27652
G0 F9000 X122.42 Y123.84
G1 F1200 X103.66 Y105.07 E321.46088
G0 F9000 X103.66 Y105.64
G1 F1200 X121.86 Y123.84 E324.54918
G0 F9000 X121.29 Y123.84
G1 F1200 X103.66 Y106.21 E327.54143
G0 F9000 X103.66 Y106.77
G1 F1200 X120.73 Y123.84 E330.43780
G0 F9000 X120.16 Y123.84
G1 F1200 X103.66 Y107.34 E333.23811
G0 F9000 X103.66 Y107.90
G1 F1200 X119.59 Y123.84 E335.94237
G0 F9000 X119.03 Y123.84
G1 F1200 X103.66 Y108.47 E338.55075
G0 F9000 X103.66 Y109.03
G1 F1200 X118.46 Y123.84 E341.06290
G0 F9000 X117.90 Y123.84
G1 F1200 X103.66 Y109.60 E343.47908
G0 F9000 X103.66 Y110.17
G1 F1200 X117.33 Y123.84 E345.79930
G0 F9000 X116.77 Y123.84
G1 F1200 X103.66 Y110.73 E348.02346
G0 F9000 X103.66 Y111.30
G1 F1200 X116.20 Y123.84 E350.15157
G0 F9000 X115.64 Y123.84
G1 F1200 X103.66 Y111.86 E352.18379
G0 F9000 X103.66 Y112.43
G1 F1200 X115.07 Y123.84 E354.11996
G0 F9000 X114.50 Y123.84
G1 F1200 X103.66 Y112.99 E355.96008
G0 F9000 X103.66 Y113.56
G1 F1200 X113.94 Y123.84 E357.70432
G0 F9000 X113.37 Y123.84
G1 F1200 X103.66 Y114.12 E359.35250
G0 F9000 X103.66 Y114.69
G1 F1200 X112.81 Y123.84 E360.90463
G0 F9000 X112.24 Y123.84
G1 F1200 X103.66 Y115.26 E362.36087
G0 F9000 X103.66 Y115.82
G1 F1200 X111.67 Y123.84 E363.72106
G0 F9000 X111.11 Y123.84
G1 F1200 X103.66 Y116.39 E364.98520
G0 F9000 X103.66 Y116.95
G1 F1200 X110.54 Y123.84 E366.15328
G0 F9000 X109.98 Y123.84
G1 F1200 X103.66 Y117.52 E367.22540
G0 F9000 X103.66 Y118.08
G1 F1200 X109.41 Y123.84 E368.20154
G0 F9000 X108.85 Y123.84
G1 F1200 X103.66 Y118.65 E369.08164
G0 F9000 X103.66 Y119.22
G1 F1200 X108.28 Y123.84 E369.86576
G0 F9000 X107.71 Y123.84
G1 F1200 X103.66 Y119.78 E370.55383
G0 F9000 X103.66 Y120.35
G1 F1200 X107.15 Y123.84 E371.14594
G0 F9000 X106.58 Y123.84
G1 F1200 X103.66 Y120.91 E371.64207
G0 F9000 X103.66 Y121.48
G1 F1200 X106.02 Y123.84 E372.04215
G0 F9000 X105.45 Y123.84
G1 F1200 X103.66 Y122.05 E372.34626
G0 F9000 X103.66 Y122.61
G1 F1200 X104.89 Y123.84 E372.55441
G0 F9000 X104.32 Y123.84
G1 F1200 X103.66 Y123.18 E372.66650
G0 F9000 X103.82 Y123.18
G0 X104.27 Y101.32
G0 X104.27 Y101.16
G1 F1200 X126.34 Y123.23 E376.41122
G0 F9000 X126.34 Y122.66
G1 F1200 X104.84 Y101.16 E380.05989
G0 F9000 X105.40 Y101.16
G1 F1200 X126.34 Y122.09 E383.61260
G0 F9000 X126.34 Y121.53
G1 F1200 X105.97 Y101.16 E387.06933
G0 F9000 X106.53 Y101.16
G1 F1200 X126.34 Y120.96 E390.43001
G0 F9000 X126.34 Y120.40
G1 F1200 X107.10 Y101.16 E393.69472
G0 F9000 X107.67 Y101.16
G1 F1200 X126.34 Y119.83 E396.86338
G0 F9000 X126.34 Y119.27
G1 F1200 X108.23 Y101.16 E399.93607
G0 F9000 X108.80 Y101.16
G1 F1200 X126.34 Y118.70 E402.91279
G0 F9000 X126.34 Y118.13
G1 F1200 X109.36 Y101.16 E405.79346
G0 F9000 X109.93 Y101.16
G1 F1200 X126.34 Y117.57 E408.57816
G0 F9000 X126.34 Y117.00
G1 F1200 X110.49 Y101.16 E411.26689
G0 F9000 X111.06 Y101.16
G1 F1200 X126.34 Y116.44 E413.85957
G0 F9000 X126.34 Y115.87
G1 F1200 X111.62 Y101.16 E416.35628
G0 F9000 X112.19 Y101.16
G1 F1200 X126.34 Y115.31 E418.75702
G0 F9000 X126.34 Y114.74
G1 F1200 X112.76 Y101.16 E421.06171
G0 F9000 X113.32 Y101.16
G1 F1200 X126.34 Y114.17 E423.27043
G0 F9000 X126.34 Y113.61
G1 F1200 X113.89 Y101.16 E425.38309
G0 F9000 X114.45 Y101.16
G1 F1200 X126.34 Y113.04 E427.39979
G0 F9000 X126.34 Y112.48
G1 F1200 X115.02 Y101.16 E429.32060
G0 F9000 X115.58 Y101.16
G1 F1200 X126.34 Y111.91 E431.14545
G0 F9000 X126.34 Y111.35
G1 F1200 X116.15 Y101.16 E432.87432
G0 F9000 X116.72 Y101.16
G1 F1200 X126.34 Y110.78 E434.50714
G0 F9000 X126.34 Y110.22
G1 F1200 X117.28 Y101.16 E436.04400
G0 F9000 X117.85 Y101.16
G1 F1200 X126.34 Y109.65 E437.48488
G0 F9000 X126.34 Y109.08
G1 F1200 X118.41 Y101.16 E438.82972
G0 F9000 X118.98 Y101.16
G1 F1200 X126.34 Y108.52 E440.07850
G0 F9000 X126.34 Y107.95
G1 F1200 X119.54 Y101.16 E441.23139
G0 F9000 X120.11 Y101.16
G1 F1200 X126.34 Y107.39 E442.28823
G0 F9000 X126.34 Y106.82
G1 F1200 X120.68 Y101.16 E443.24902
G0 F9000 X121.24 Y101.16
G1 F1200 X126.34 Y106.26 E444.11393
G0 F9000 X126.34 Y105.69
G1 F1200 X121.81 Y101.16 E444.88278
G0 F9000 X122.37 Y101.16
G1 F1200 X126.34 Y105.12 E445.55557
G0 F9000 X126.34 Y104.56
G1 F1200 X122.94 Y101.16 E446.13249
G0 F9000 X123.50 Y101.16
G1 F1200 X126.34 Y103.99 E446.61335
G0 F9000 X126.34 Y103.43
G1 F1200 X124.07 Y101.16 E446.99816
G0 F9000 X124.64 Y101.16
G1 F1200 X126.34 Y102.86 E447.28700
G0 F9000 X126.34 Y102.30
G1 F1200 X125.20 Y101.16 E447.47987
G0 F9000 X125.77 Y101.16
G1 F1200 X126.34 Y101.73 E447.57668
G0 F9000 X125.48 Y102.02
;LAYER:1
M106 S63
G0 X126.54 Y101.54 Z0.36
;TYPE:WALL-OUTER
G1 F1620 X126.54 Y123.47 E448.10284
G1 X126.36 Y123.87 E448.11337
G1 X126.27 Y123.92 E448.11581
G1 X125.99 Y124.03 E448.12298
G1 X104.04 Y124.04 E448.64994
G1 X103.73 Y123.92 E448.65788
