;FLAVOR:UltiGCode
;TIME:2007      
;MATERIAL:2859      
;MATERIAL2:0         

;Layer count: 263
;LAYER:0
M107
G0 F9000 X95.69 Y91.73 Z0.30
;TYPE:SKIRT
G1 F1200 X101.48 Y89.12 E1.14251
G1 X122.95 Y89.12 E5.00765
G1 X128.16 Y89.12 E5.94491
G1 X131.90 Y90.55 E6.66627
G1 X135.76 Y93.19 E7.50878
G1 X138.38 Y98.98 E8.65129
G1 X138.38 Y126.01 E13.51705
G1 X135.79 Y131.76 E14.65181
G1 X131.87 Y134.49 E15.51174
G1 X128.09 Y135.88 E16.23626
G1 X101.92 Y135.88 E20.94686
G1 X98.14 Y134.49 E21.67122
G1 X94.22 Y131.77 E22.53155
G1 X91.62 Y126.02 E23.66632
G1 X91.62 Y99.35 E28.46692
G1 X93.05 Y95.61 E29.18771
G1 X95.69 Y91.73 E30.03242
G0 F9000 X96.09 Y92.21
G1 F1200 X101.61 Y89.72 E31.12143
G1 X122.95 Y89.72 E34.96335
G1 X128.05 Y89.72 E35.88081
G1 X131.62 Y91.09 E36.56941
G1 X135.29 Y93.59 E37.36879
G1 X137.78 Y99.11 E38.45780
G1 X137.78 Y125.88 E43.27712
G1 X135.31 Y131.36 E44.35879
G1 X131.59 Y133.95 E45.17488
G1 X127.98 Y135.28 E45.86642
G1 X102.03 Y135.28 E50.53850
G1 X98.42 Y133.96 E51.22989
G1 X94.70 Y131.37 E52.04648
G1 X92.22 Y125.89 E53.12800
G1 X92.22 Y99.46 E57.88558
G1 X93.58 Y95.89 E58.57384
G1 X96.09 Y92.21 E59.37516
G0 F9000 X96.50 Y92.69
G1 F1200 X101.74 Y90.32 E60.41060
G1 X122.95 Y90.32 E64.22930
G1 X127.94 Y90.32 E65.12678
G1 X131.34 Y91.62 E65.78262
G1 X134.81 Y94.00 E66.53916
G1 X137.18 Y99.24 E67.57460
G1 X137.18 Y125.75 E72.34766
G1 X134.83 Y130.96 E73.37608
G1 X131.31 Y133.41 E74.14858
G1 X127.88 Y134.68 E74.80692
G1 X102.14 Y134.68 E79.44048
G1 X98.70 Y133.42 E80.09889
G1 X95.17 Y130.97 E80.87179
G1 X92.82 Y125.76 E81.90014
G1 X92.82 Y99.57 E86.61470
G1 X94.12 Y96.17 E87.27020
G1 X96.50 Y92.69 E88.02854
G0 F9000 X96.89 Y93.17
G1 F1200 X101.87 Y90.92 E89.01065
G1 X122.95 Y90.92 E92.80595
G1 X127.83 Y90.92 E93.68345
G1 X131.06 Y92.16 E94.30670
G1 X134.33 Y94.39 E95.02010
G1 X136.58 Y99.37 E96.00221
G1 X136.58 Y125.62 E100.72865
G1 X134.35 Y130.57 E101.70390
G1 X131.03 Y132.88 E102.43270
G1 X127.77 Y134.08 E103.05808
G1 X102.24 Y134.08 E107.65330
G1 X98.98 Y132.88 E108.27857
G1 X95.65 Y130.57 E109.00763
G1 X93.42 Y125.63 E109.98305
G1 X93.42 Y99.68 E114.65423
G1 X94.65 Y96.45 E115.27720
G1 X96.89 Y93.17 E115.99230
G0 F9000 X97.30 Y93.64
G1 F1200 X102.00 Y91.52 E116.92067
G1 X122.95 Y91.52 E120.69275
G1 X127.72 Y91.52 E121.55027
G1 X130.78 Y92.69 E122.14093
G1 X133.85 Y94.80 E122.81145
G1 X135.98 Y99.50 E123.73983
G1 X135.98 Y125.50 E128.41983
G1 X133.88 Y130.17 E129.34198
G1 X130.75 Y132.34 E130.02720
G1 X127.66 Y133.48 E130.61953
G1 X102.35 Y133.48 E135.17605
G1 X99.26 Y132.34 E135.76830
G1 X96.13 Y130.17 E136.45376
G1 X94.02 Y125.50 E137.37602
G1 X94.02 Y99.79 E142.00418
G1 X95.19 Y96.73 E142.59439
G1 X97.30 Y93.64 E143.26660
G0 F9000 X97.70 Y94.12
G1 F1200 X102.12 Y92.12 E144.14148
G1 X122.95 Y92.12 E147.89034
G1 X127.61 Y92.12 E148.72806
G1 X130.50 Y93.23 E149.28586
G1 X133.38 Y95.20 E149.91328
G1 X135.38 Y99.62 E150.78816
G1 X135.38 Y125.37 E155.42172
G1 X133.40 Y129.77 E156.29079
G1 X130.47 Y131.80 E156.93226
G1 X127.56 Y132.88 E157.49157
G1 X102.45 Y132.88 E162.00975
G1 X99.54 Y131.81 E162.56885
G1 X96.61 Y129.77 E163.21058
G1 X94.62 Y125.38 E164.07958
G1 X94.62 Y99.90 E168.66472
G1 X95.72 Y97.01 E169.22223
G1 X97.70 Y94.12 E169.85120
G0 F9000 X98.10 Y94.60
G1 F1200 X102.25 Y92.72 E170.67268
G1 X122.95 Y92.72 E174.39832
G1 X127.50 Y92.72 E175.21588
G1 X130.22 Y93.76 E175.74102
G1 X132.90 Y95.60 E176.32546
G1 X134.78 Y99.75 E177.14677
G1 X134.78 Y125.24 E181.73407
G1 X132.92 Y129.37 E182.54988
G1 X130.19 Y131.27 E183.14766
G1 X127.45 Y132.28 E183.67383
G1 X102.56 Y132.28 E188.15349
G1 X99.82 Y131.27 E188.67962
G1 X97.09 Y129.38 E189.27765
G1 X95.22 Y125.25 E190.09348
G1 X95.22 Y100.01 E194.63560
G1 X96.26 Y97.29 E195.16035
G1 X98.10 Y94.60 E195.74634
G0 F9000 X98.50 Y95.08
G1 F1200 X102.38 Y93.32 E196.51416
G1 X122.95 Y93.32 E200.21658
G1 X127.38 Y93.32 E201.01416
G1 X129.94 Y94.30 E201.50654
G1 X132.42 Y96.00 E202.04809
G1 X134.18 Y99.88 E202.81591
G1 X134.18 Y125.11 E207.35659
G1 X132.44 Y128.97 E208.11930
G1 X129.91 Y130.73 E208.67335
G1 X127.34 Y131.68 E209.16648
G1 X102.67 Y131.68 E213.60762
G1 X100.10 Y130.73 E214.10078
G1 X97.57 Y128.98 E214.65512
G1 X95.82 Y125.12 E215.41795
G1 X95.82 Y100.12 E219.91687
G1 X96.79 Y97.57 E220.40892
G1 X98.50 Y95.08 E220.95178
G0 F9000 X98.90 Y95.56
G1 F1200 X102.51 Y93.92 E221.66610
G1 X122.95 Y93.92 E225.34530
G1 X127.27 Y93.92 E226.12290
G1 X129.66 Y94.83 E226.58268
G1 X131.94 Y96.40 E227.08110
G1 X133.58 Y100.01 E227.79543
G1 X133.58 Y124.98 E232.28967
G1 X131.96 Y128.58 E232.99928
G1 X129.63 Y130.19 E233.50964
G1 X127.23 Y131.08 E233.96980
G1 X102.77 Y131.08 E238.37242
G1 X100.38 Y130.20 E238.83237
G1 X98.05 Y128.58 E239.34298
G1 X96.42 Y124.99 E240.05271
G1 X96.42 Y100.23 E244.50843
G1 X97.33 Y97.85 E244.96790
G1 X98.90 Y95.56 E245.46761
G0 F9000 X99.30 Y96.03
G1 F1200 X102.64 Y94.52 E246.12837
G1 X122.95 Y94.52 E249.78435
G1 X127.16 Y94.52 E250.54215
G1 X129.38 Y95.37 E250.96900
G1 X131.47 Y96.80 E251.42458
G1 X132.98 Y100.14 E252.08534
G1 X132.98 Y124.85 E256.53314
G1 X131.48 Y128.18 E257.18966
G1 X129.35 Y129.66 E257.65628
G1 X127.13 Y130.48 E258.08340
G1 X102.88 Y130.48 E262.44750
G1 X100.65 Y129.66 E262.87449
G1 X98.52 Y128.18 E263.34150
G1 X97.02 Y124.86 E263.99791
G1 X97.02 Y100.34 E268.41061
G1 X97.86 Y98.13 E268.83731
G1 X99.30 Y96.03 E269.29404
G0 F9000 X99.70 Y96.51
G1 F1200 X102.77 Y95.12 E269.90146
G1 X122.95 Y95.12 E273.53404
G1 X127.05 Y95.12 E274.27186
G1 X129.10 Y95.90 E274.66613
G1 X130.99 Y97.20 E275.07857
G1 X132.38 Y100.27 E275.68599
G1 X132.38 Y124.72 E280.08717
G1 X131.00 Y127.78 E280.69061
G1 X129.07 Y129.12 E281.11363
G1 X127.02 Y129.88 E281.50756
G1 X102.99 Y129.88 E285.83332
G1 X100.93 Y129.12 E286.22716
G1 X99.00 Y127.78 E286.65033
G1 X97.62 Y124.73 E287.25381
G1 X97.62 Y100.45 E291.62331
G1 X98.40 Y98.41 E292.01731
G1 X99.70 Y96.51 E292.43081
G0 F9000 X100.10 Y96.99
G1 F1200 X102.90 Y95.72 E292.98450
G1 X122.95 Y95.72 E296.59386
G1 X126.94 Y95.72 E297.31170
G1 X128.82 Y96.44 E297.67337
G1 X130.51 Y97.60 E298.04293
G1 X131.78 Y100.40 E298.59662
G1 X131.78 Y124.59 E302.95154
G1 X130.52 Y127.38 E303.50164
G1 X128.79 Y128.58 E303.88097
G1 X126.91 Y129.28 E304.24192
G1 X103.09 Y129.28 E308.52916
G1 X101.21 Y128.59 E308.89003
G1 X99.48 Y127.39 E309.26952
G1 X98.22 Y124.60 E309.81982
G1 X98.22 Y100.56 E314.14630
G1 X98.94 Y98.69 E314.50755
G1 X100.10 Y96.99 E314.87816
G0 F9000 X100.50 Y97.47
G1 F1200 X103.03 Y96.32 E315.37835
G1 X122.95 Y96.32 E318.96467
G1 X126.83 Y96.32 E319.66253
G1 X128.54 Y96.97 E319.99134
G1 X130.03 Y98.00 E320.31781
G1 X131.18 Y100.53 E320.81800
G1 X131.18 Y124.47 E325.12648
G1 X130.04 Y126.98 E325.62349
G1 X128.51 Y128.05 E325.95923
G1 X126.80 Y128.68 E326.28715
G1 X103.20 Y128.68 E330.53569
G1 X101.49 Y128.05 E330.86353
G1 X99.96 Y126.99 E331.19927
G1 X98.82 Y124.47 E331.69649
G1 X98.82 Y100.67 E335.97995
G1 X99.47 Y98.97 E336.30850
G1 X100.50 Y97.47 E336.63587
G0 F9000 X100.90 Y97.94
G1 F1200 X103.16 Y96.92 E337.08266
G1 X122.95 Y96.92 E340.64558
G1 X126.72 Y96.92 E341.32346
G1 X128.26 Y97.51 E341.61967
G1 X129.56 Y98.40 E341.90315
G1 X130.58 Y100.66 E342.34994
G1 X130.58 Y124.34 E346.61180
G1 X129.57 Y126.59 E347.05588
G1 X128.23 Y127.51 E347.34779
G1 X126.70 Y128.08 E347.64267
G1 X103.31 Y128.08 E351.85287
G1 X101.77 Y127.51 E352.14757
G1 X100.44 Y126.59 E352.43962
G1 X99.42 Y124.34 E352.88383
G1 X99.42 Y100.78 E357.12391
G1 X100.01 Y99.25 E357.41987
G1 X100.90 Y97.94 E357.70425
G0 F9000 X101.30 Y98.42
G1 F1200 X103.29 Y97.52 E358.09755
G1 X122.95 Y97.52 E361.63725
G1 X126.61 Y97.52 E362.29515
G1 X127.98 Y98.04 E362.55860
G1 X129.08 Y98.80 E362.79909
G1 X129.98 Y100.79 E363.19239
G1 X129.98 Y124.21 E367.40781
G1 X129.09 Y126.19 E367.79880
G1 X127.95 Y126.97 E368.04701
G1 X126.59 Y127.48 E368.30875
G1 X103.41 Y127.48 E372.48043
G1 X102.05 Y126.98 E372.74216
G1 X100.92 Y126.19 E372.99047
G1 X100.02 Y124.21 E373.38142
G1 X100.02 Y100.89 E377.57848
G1 X100.54 Y99.53 E377.84191
G1 X101.30 Y98.42 E378.08291
G0 F9000 X101.70 Y98.90
G1 F1200 X103.42 Y98.12 E378.42247
G1 X122.95 Y98.12 E381.93895
G1 X126.50 Y98.12 E382.57687
G1 X127.70 Y98.58 E382.80773
G1 X128.60 Y99.20 E383.00534
G1 X129.38 Y100.92 E383.34490
G1 X129.38 Y124.08 E387.51406
G1 X128.61 Y125.79 E387.85179
G1 X127.67 Y126.44 E388.05626
G1 X126.48 Y126.88 E388.28498
G1 X103.52 Y126.88 E392.41832
G1 X102.33 Y126.44 E392.64690
G1 X101.39 Y125.79 E392.85152
G1 X100.62 Y124.08 E393.18931
G1 X100.62 Y101.00 E397.34335
G1 X101.08 Y99.81 E397.57402
G1 X101.70 Y98.90 E397.77213
G0 F9000 X102.10 Y99.38
G1 F1200 X103.55 Y98.72 E398.05819
G1 X126.39 Y98.72 E402.16957
G1 X127.42 Y99.11 E402.36751
G1 X128.12 Y99.60 E402.52213
G1 X128.78 Y101.05 E402.80820
G1 X128.78 Y123.95 E406.93092
G1 X128.13 Y125.39 E407.21555
G1 X127.39 Y125.90 E407.37633
G1 X126.38 Y126.28 E407.57207
G1 X103.63 Y126.28 E411.66671
G1 X102.61 Y125.90 E411.86226
G1 X101.87 Y125.39 E412.02329
G1 X101.22 Y123.95 E412.30792
G1 X101.22 Y101.11 E416.41894
G1 X101.61 Y100.09 E416.61691
G1 X102.10 Y99.38 E416.77178
G0 F9000 X102.50 Y99.85
G1 F1200 X103.68 Y99.32 E417.00444
G1 X126.28 Y99.32 E421.07244
G1 X127.14 Y99.65 E421.23778
G1 X127.65 Y100.00 E421.34942
G1 X128.18 Y101.18 E421.58208
G1 X128.18 Y123.82 E425.65818
G1 X127.65 Y125.00 E425.88972
G1 X127.12 Y125.37 E426.00676
G1 X126.27 Y125.68 E426.16947
G1 X103.73 Y125.68 E430.22559
G1 X102.89 Y125.37 E430.38817
G1 X102.35 Y125.00 E430.50536
G1 X101.82 Y123.82 E430.73705
G1 X101.82 Y101.22 E434.80487
G1 X102.15 Y100.37 E434.97008
G1 X102.50 Y99.85 E435.08197
G0 F9000 X102.90 Y100.33
G1 F1200 X103.81 Y99.92 E435.26097
G1 X126.17 Y99.92 E439.28577
G1 X126.86 Y100.18 E439.41852
G1 X127.17 Y100.40 E439.48712
G1 X127.58 Y101.31 E439.66612
G1 X127.58 Y123.69 E443.69578
G1 X127.17 Y124.60 E443.87423
G1 X126.84 Y124.83 E443.94768
G1 X126.16 Y125.08 E444.07719
G1 X103.84 Y125.08 E448.09497
G1 X103.17 Y124.83 E448.22441
G1 X102.83 Y124.60 E448.29801
G1 X102.42 Y123.69 E448.47637
G1 X102.42 Y101.33 E452.50099
G1 X102.68 Y100.65 E452.63367
G1 X102.90 Y100.33 E452.70242
G0 F9000 X103.30 Y100.81
G1 F1200 X103.94 Y100.52 E452.82785
G1 X126.06 Y100.52 E456.80945
G1 X126.57 Y100.72 E456.90944
G1 X126.69 Y100.80 E456.93520
G1 X126.98 Y101.44 E457.06064
G1 X126.98 Y123.56 E461.04386
G1 X126.69 Y124.20 E461.16921
G1 X126.56 Y124.29 E461.19882
G1 X126.05 Y124.48 E461.29536
G1 X103.95 Y124.48 E465.27462
G1 X103.44 Y124.29 E465.37109
G1 X103.31 Y124.20 E465.40084
G1 X103.02 Y123.56 E465.52611
G1 X103.02 Y101.44 E469.50771
G1 X103.22 Y100.93 E469.60764
G1 X103.30 Y100.81 E469.63340
G0 F9000 X103.73 Y101.27
;TYPE:WALL-OUTER
G1 F1200 X104.06 Y101.12 E469.69954
G1 X125.94 Y101.12 E473.63812
G1 X126.23 Y101.23 E473.69248
G1 X126.38 Y101.56 E473.75869
G1 X126.38 Y123.44 E477.69547
G1 X126.22 Y123.78 E477.76299
G1 X125.95 Y123.88 E477.81612
G1 X104.05 Y123.88 E481.75686
G1 X103.78 Y123.78 E481.81039
G1 X103.62 Y123.44 E481.87741
G1 X103.62 Y101.55 E485.81617
G1 X103.73 Y101.27 E485.87047
G0 F9000 X103.83 Y101.71
;TYPE:FILL
G1 F1200 X125.79 Y123.67 E491.46031
G0 F9000 X126.17 Y123.20
G1 F1200 X104.30 Y101.33 E497.02674
G0 F9000 X105.15 Y101.33
G1 F1200 X126.17 Y122.35 E502.37718
G0 F9000 X126.17 Y121.50
G1 F1200 X106.00 Y101.33 E507.51162
G0 F9000 X106.85 Y101.33
G1 F1200 X126.17 Y120.65 E512.43007
G0 F9000 X126.17 Y119.80
G1 F1200 X107.69 Y101.33 E517.13253
G0 F9000 X108.54 Y101.33
G1 F1200 X126.17 Y118.95 E521.61900
G0 F9000 X126.17 Y118.11
G1 F1200 X109.39 Y101.33 E525.88947
G0 F9000 X110.24 Y101.33
G1 F1200 X126.17 Y117.26 E529.94395
G0 F9000 X126.17 Y116.41
G1 F1200 X111.09 Y101.33 E533.78244
G0 F9000 X111.94 Y101.33
G1 F1200 X126.17 Y115.56 E537.40493
G0 F9000 X126.17 Y114.71
G1 F1200 X112.79 Y101.33 E540.81143
G0 F9000 X113.63 Y101.33
G1 F1200 X126.17 Y113.86 E544.00194
G0 F9000 X126.17 Y113.02
G1 F1200 X114.48 Y101.33 E546.97646
G0 F9000 X115.33 Y101.33
G1 F1200 X126.17 Y112.17 E549.73498
G0 F9000 X126.17 Y111.32
G1 F1200 X116.18 Y101.33 E552.27751
G0 F9000 X117.03 Y101.33
G1 F1200 X126.17 Y110.47 E554.60392
G0 F9000 X126.17 Y109.62
G1 F1200 X117.88 Y101.33 E556.71446
G0 F9000 X118.73 Y101.33
G1 F1200 X126.17 Y108.77 E558.60888
G0 F9000 X126.17 Y107.92
G1 F1200 X119.57 Y101.33 E560.28744
G0 F9000 X120.42 Y101.33
G1 F1200 X126.17 Y107.08 E561.74988
G0 F9000 X126.17 Y106.23
G1 F1200 X121.27 Y101.33 E562.99633
G0 F9000 X122.12 Y101.33
G1 F1200 X126.17 Y105.38 E564.02678
G0 F9000 X126.17 Y104.53
G1 F1200 X122.97 Y101.33 E564.84124
G0 F9000 X123.82 Y101.33
G1 F1200 X126.17 Y103.68 E565.43971
G0 F9000 X126.17 Y102.83
G1 F1200 X124.67 Y101.33 E565.82218
G0 F9000 X125.51 Y101.33
G1 F1200 X126.17 Y101.98 E565.98866
G0 F9000 X125.98 Y101.98
G0 X124.94 Y123.48
G0 X124.94 Y123.67
G1 F1200 X103.83 Y102.56 E571.36239
G0 F9000 X103.83 Y103.41
G1 F1200 X124.09 Y123.67 E576.52025
G0 F9000 X123.24 Y123.67
G1 F1200 X103.83 Y104.25 E581.46200
G0 F9000 X103.83 Y105.10
G1 F1200 X122.39 Y123.67 E586.18787
G0 F9000 X121.55 Y123.67
G1 F1200 X103.83 Y105.95 E590.69763
G0 F9000 X103.83 Y106.80
G1 F1200 X120.70 Y123.67 E594.99152
G0 F9000 X119.85 Y123.67
G1 F1200 X103.83 Y107.65 E599.06929
G0 F9000 X103.83 Y108.50
G1 F1200 X119.00 Y123.67 E602.93120
G0 F9000 X118.15 Y123.67
G1 F1200 X103.83 Y109.35 E606.57699
G0 F9000 X103.83 Y110.19
G1 F1200 X117.30 Y123.67 E610.00691
G0 F9000 X116.45 Y123.67
G1 F1200 X103.83 Y111.04 E613.22071
G0 F9000 X103.83 Y111.89
G1 F1200 X115.61 Y123.67 E616.21864
G0 F9000 X114.76 Y123.67
G1 F1200 X103.83 Y112.74 E619.00020
G0 F9000 X103.83 Y113.59
G1 F1200 X113.91 Y123.67 E621.56590
G0 F9000 X113.06 Y123.67
G1 F1200 X103.83 Y114.44 E623.91547
G0 F9000 X103.83 Y115.28
G1 F1200 X112.21 Y123.67 E626.04918
G0 F9000 X111.36 Y123.67
G1 F1200 X103.83 Y116.13 E627.96677
G0 F9000 X103.83 Y116.98
G1 F1200 X110.52 Y123.67 E629.66836
G0 F9000 X109.67 Y123.67
G1 F1200 X103.83 Y117.83 E631.15397
G0 F9000 X103.83 Y118.68
G1 F1200 X108.82 Y123.67 E632.42358
G0 F9000 X107.97 Y123.67
G1 F1200 X103.83 Y119.53 E633.47720
G0 F9000 X103.83 Y120.38
G1 F1200 X107.12 Y123.67 E634.31482
G0 F9000 X106.27 Y123.67
G1 F1200 X103.83 Y121.22 E634.93645
G0 F9000 X103.83 Y122.07
G1 F1200 X105.42 Y123.67 E635.34196
G0 F9000 X104.58 Y123.67
G1 F1200 X103.83 Y122.92 E635.53161
G0 F9000 X105.12 Y122.38
;LAYER:1
M106 S63
G0 X103.96 Y123.36 Z0.36
G0 X103.56 Y123.44
;TYPE:WALL-OUTER
G1 F1620 X103.56 Y101.55 E636.31940
G1 X103.67 Y101.28 E636.33007
G1 X103.70 Y101.23 E636.33217
G1 X104.06 Y101.06 E636.34656
G1 X125.96 Y101.06 E637.13481
G1 X126.22 Y101.17 E637.14504
G1 X126.27 Y101.20 E637.14713
G1 X126.44 Y101.56 E637.16152
G1 X126.44 Y123.45 E637.94942
G1 X126.28 Y123.80 E637.96324
G1 X126.23 Y123.83 E637.96542
G1 X125.97 Y123.93 E637.97523
G1 X104.05 Y123.94 E638.76432
G1 X103.78 Y123.83 E638.77499
G1 X103.73 Y123.80 E638.77709
G1 X103.56 Y123.44 E638.79148
G0 F9000 X103.77 Y123.21
;TYPE:FILL
G1 F1620 X125.71 Y101.27 E639.90817
G0 F9000 X126.22 Y101.61
G1 F1620 X104.10 Y123.73 E641.03434
G0 F9000 X104.95 Y123.73
G1 F1620 X126.22 Y102.45 E642.11736
G0 F9000 X126.22 Y103.30
G1 F1620 X105.80 Y123.73 E643.15720
G0 F9000 X106.65 Y123.73
G1 F1620 X126.22 Y104.15 E644.15383
G0 F9000 X126.22 Y105.00
G1 F1620 X107.50 Y123.73 E645.10728
G0 F9000 X108.35 Y123.73
G1 F1620 X126.22 Y105.85 E646.01750
G0 F9000 X126.22 Y106.70
G1 F1620 X109.19 Y123.72 E646.88447
G0 F9000 X110.04 Y123.72
G1 F1620 X126.22 Y107.54 E647.70825
G0 F9000 X126.22 Y108.39
G1 F1620 X110.89 Y123.72 E648.48883
G0 F9000 X111.74 Y123.72
G1 F1620 X126.22 Y109.24 E649.22621
G0 F9000 X126.22 Y110.09
G1 F1620 X112.59 Y123.72 E649.92039
G0 F9000 X113.44 Y123.72
G1 F1620 X126.22 Y110.94 E650.57132
G0 F9000 X126.22 Y111.79
G1 F1620 X114.29 Y123.72 E651.17905
G0 F9000 X115.14 Y123.72
G1 F1620 X126.22 Y112.64 E651.74359
G0 F9000 X126.22 Y113.48
G1 F1620 X115.98 Y123.72 E652.26492
G0 F9000 X116.83 Y123.72
G1 F1620 X126.22 Y114.33 E652.74306
G0 F9000 X126.22 Y115.18
G1 F1620 X117.68 Y123.72 E653.17795
G0 F9000 X118.53 Y123.72
G1 F1620 X126.22 Y116.03 E653.56966
G0 F9000 X126.22 Y116.88
G1 F1620 X119.38 Y123.72 E653.91815
